X: 28293
T: Mrs. Sampson's Delight
R: jig
M: 6/8
K: Adorian
|:EAE ~A3|BdB d2B|ABd BAF|GEA GED|
EAE ~A3|Bdd d2B|ABd BAG|1 ABG A2G:|2 ABG A3||
Bdd dB/^c/d|egf g2e|~d3 dBd|eBA BAg|
e2d e2d|egf g2e|dge dBG|ABG A3|
Bdd dB/^c/d|egf g2b|age edB|dBA GED|
EAE ~A3|~B3 d2B|ABd BAG|ABG A2G||

